X: 60
T: Irish Air
%R: air, waltz
B: "The Hibernian Muse" p.37 #2
F: http://imslp.org/wiki/The_Hibernian_Muse_%28Various%29
Z: 2015 John Chambers <jc:trillian.mit.edu>
P: No. LX.
M: 3/4
L: 1/8
K: Dm
% - - - - - - - - - - - - - - - - - - - - - - - - - - - - -
V: 1
A(B/c/) |\
d2d2cA | d4cd | e2(ge)(dc) | d4de |\
f2f2ed | e2e2dc | d2a2(ge) | d4(cA) |
G2A2c2 | c3ded | c2G2A2 | c4E2 |\
F3GAG | A2c2GE | D2A2GE | D4 |]
% - - - - - - - - - - - - - - - - - - - - - - - - - - - - -
V: 2 clef=bass middle=d
z2 |\
d2d2e2 | f2f2f2 | e2e2e2 | d4bc' |\
d'2d'2c'b | c'2c'2ba | f2d2a2 | d4z2 |
e2f2e2 | c2e2g2 | c'2e2f2 | e2c2z2 |\
f2a2c'2 | a2f2g2 | f2d2a2 | d4 |]

%%sep 2 1 500
%%sep 1 1 500

